X:545
T: Huaihua jishi kai
N: C0149
O: China,Sichuan, Yibin
S: II, 247]
N: Verzierungen
N: Als Tonbeispiel vorhanden; Signatur: 00151, Cut Nr.: 02 ( Variante )
N: Textvariante, Melodie erhalten. Inhalt: Ein Maedchen schaut sich
N: die Baeume an und traeumt sie als Geliebte. Die Mutter fragt, was
N: es da zu sehen gaebe. - Saengerin: Huang Bai
N: VARIANTE, bes. hinsichtlich der Tonlaengen. Hier waere vermutl.
N: die Taktart "FREI" angebrachter. Die letzten beiden Phrasen
N: wurden nach Gehoer eingeteilt.
R: Shange; Qingge]
M: 2/4
L: 1/16
K: G
gggee4 | dge2-e2de | B8- | B4z4 |
ddBeA4 | d2B2e3B | A8 | E8 |
EGGEE2zg | e2ege2de | B8 |
A8 | d2BdB2e2 | A8 |
d2B2e3B | A8 | E8- | E8

@@@ Tune index: 6546
